!!!COM: Schubert, Franz
!!!CDT: 1797/01/31-1828/11/19
!!!SCT: D. 779
!!!OPR: Valses sentimentales
!!!OPS: 50
!!!ONM: 13
**kern	**kern	**dynam
*part1	*part1	*part1
*staff2	*staff1	*
*>[A,B,B1,B,B2]	*>[A,B,B1,B,B2]	*
*clefF4	*clefG2	*
*k[f#c#g#]	*k[f#c#g#]	*
*A:	*A:	*
*M3/4	*M3/4	*
*MM160	*MM160	*
=1	=1	=1
*>A	*>A	*>A
4AA	2.r	p
4A 4c# 4e	.	.
4A 4c# 4e	.	.
=	=	=
4AA	4r	.
!	!LO:TX:a:i:t=Zart.	!
4A 4c# 4e	(8cc#L	.
.	8ee	.
4A 4c# 4e	8dd	.
.	8cc#J)	.
=	=	=
*	*^	*
4D	2ff#^	2cc#	.
4d 4f#	.	.	.
4d 4f#	[4ff#	[4b	.
=	=	=	=
4D	4ff#]	4b]	.
4d 4f#	(8ff#L	2b	.
.	8aa	.	.
4d 4f#	8gg#	.	.
.	8ff#J)	.	.
=	=	=	=
4E	2ee^	2b	.
4c# 4e	.	.	.
4c# 4e	[4ee	[4a	.
=	=	=	=
4E	4ee]	4a]	.
4c# 4e	2ee	(8aL	.
.	.	8cc#	.
4c# 4e	.	8b	.
.	.	8aJ)	.
=	=	=	=
4E	2ee	2a	.
4B 4d 4e	.	.	.
4B 4d 4e	[4ee	[4g#	.
=	=	=	=
4E	4ee]	4g#]	.
4B 4d 4e	(8eeL	2g#	.
.	8gg#	.	.
4B 4d 4e	8ff#	.	.
.	8eeJ)	.	.
=	=	=	=
4AA	2ff#	2a	.
4A 4c# 4e	.	.	.
4A 4c# 4e	[4ee	[4a	.
=	=	=	=
4AA	4ee]	4a]	.
4A 4c# 4e	2ee	(8cc#L	.
.	.	8b	.
4A 4c# 4e	.	8a	.
.	.	8gnJ)	.
=	=	=	=
4D	2ff#	2f# 2cc#	.
4d	.	.	.
4d 4f#	[4ff#	[4b	.
=	=	=	=
4D	4ff#]	4b]	.
4d 4f#	(8bbL	2b	.
.	8aa	.	.
4d 4f#	8gg#	.	.
.	8ff#J)	.	.
=	=	=	=
4E	2ee	2b	.
4c# 4e	.	.	.
4c# 4e	[4ee	[4a	.
=	=	=	=
4E	4ee]	4a]	.
4c# 4e	2ee	(8ddL	.
.	.	8cc#	.
4c# 4e	.	8b	.
.	.	8aJ)	.
=	=	=	=
4E	2ff#^	2a	.
4d 4e	.	.	.
4d 4e	[4ee	[4g#	.
=	=	=	=
4E	4ee]	4g#]	.
4d 4e	4ff#	4a	.
4d 4e	4gg#	4b	.
=	=	=	=
4AA	2aa	2a 2cc#	.
4A 4c# 4e	.	.	.
4A 4c# 4e	[4ee	[4a [4cc#	.
=	=	=	=
4AA	4ee]	4a] 4cc#]	.
*	*v	*v	*
4A 4c# 4e	(8cc#L	.
.	8ee	.
4A 4c# 4e	8dd#X	.
.	8cc#J)	.
=!|:	=!|:	=!|:
*>B	*>B	*>B
*C#:	*C#:	*
4C#	2cc#^	mf
4G# 4c# 4e#X	.	.
4G# 4c# 4e#	[4cc#^	.
=	=	=
4C#	4cc#]	.
*	*^	*
4G# 4c# 4e#X	2gg#	(8cc#L	.
.	.	8ee#X	.
4G# 4c# 4e#	.	8dd#X	.
.	.	8cc#J)	.
=	=	=	=
4GG#	2gg#	2cc# 2ff#	.
4G# 4d#X 4f#	.	.	.
4G# 4d# 4f#	[4gg#^	[4b#X [4ff#	.
=	=	=	=
4GG#	4gg#]	4b#] 4ff#]	.
4G# 4d#X 4f#	4aa#X`	4cc# 4ff#	.
4G# 4d# 4f#	4bb#X`	4dd#X 4ff#	.
=	=	=	=
4C#	2ccc#	2cc# 2ee#X	.
4G# 4c# 4e#X	.	.	.
4G# 4c# 4e#	[4gg#^	[4cc# [4ee#	.
=	=	=	=
4C#	4gg#]	4cc#] 4ee#]	.
4G# 4c# 4e#X	2gg#	(8cc#L	.
.	.	8ee#X	.
4G# 4c# 4e#	.	8dd#X	.
.	.	8cc#J)	.
=	=	=	=
4GG#	2gg#	2cc# 2ff#	.
4G# 4d#X 4f#	.	.	.
4G# 4d# 4f#	[4gg#^	[4b#X [4ff#	.
=	=	=	=
4GG#	4gg#]	4b#] 4ff#]	.
4G# 4d#X 4f#	4aa#X`	4cc# 4ff#	.
4G# 4d# 4f#	4bb#X`	4dd#X 4ff#	.
=	=	=	=
4C#	2ccc#	2cc# 2ee#X	.
4G# 4c# 4e#X	.	.	.
4G# 4c# 4e#	[4gg#^	[4cc# [4ee#	.
=	=	=	=
4C#	4gg#]	4cc#] 4ee#]	.
*	*v	*v	*
4G# 4c# 4e#X	4cc# 4gg# 4ccc#	p
4G# 4c# 4e#	4cc# 4gg# 4ccc#	.
=	=	=
*D:	*D:	*
4AA	2cc# 2ggn 2ccc#	.
4A 4eni	.	.
4A 4e	[4cc# [4gg [4ccc#	.
=	=	=
4AA	4cc#] 4gg] 4ccc#]	.
*	*^	*
4A 4e	2ccc#	(8ggnL	.
.	.	8bb	.
4A 4e	.	8aa	.
.	.	8ggJ)	.
*	*v	*v	*
=	=	=
*A:	*A:	*
4D	2ff# 2ccc# 2fff#	.
4d 4f#	.	.
4d 4f#	[4ff# [4bb [4fff#	.
=	=	=
4D	4ff#] 4bb] 4fff#]	.
*	*^	*
4d 4f#	(8fff#L	2bb	.
.	8aaa	.	.
4d 4f#	8ggg#	.	.
.	8fff#J)	.	.
=	=	=	=
4E	2eee	2bb	.
4c# 4e	.	.	.
4c# 4e	[4eee	[4aa	.
=	=	=	=
4E	4eee]	4aa]	.
4c# 4e	2ee	(8aL	.
.	.	8cc#	.
4c# 4e	.	8b	.
.	.	8aJ)	.
=	=	=	=
4E	2ff#	2a	.
4d 4e	.	.	.
4d 4e	[4ee	[4g#	.
=	=	=	=
4E	4ee]	4g#]	.
4d 4e	4ff#^	4a	.
4d 4e	4gg#^	4b	.
=	=	=	=
*>B1	*>B1	*>B1	*>B1
4AA	2aa	2a 2cc#	.
4A 4c# 4e	.	.	.
4A 4c# 4e	[4ee	[4a [4cc#	.
=	=	=	=
4AA	4ee]	4a] 4cc#]	.
*	*v	*v	*
4A 4c# 4e	(8cc#L	.
.	8ee	.
4A 4c# 4e	8dd#X	.
.	8cc#J)	.
=:|!	=:|!	=:|!
*>B2	*>B2	*>B2
4AA	[2.a [2.cc# [2.aa	.
4c# 4e	.	.
4c# 4e	.	.
=	=	=
4A 4c#	4a] 4cc#] 4aa]	.
4r	4r	.
==	==	==
*-	*-	*-
!!!system-decoration: {(s1,s2)}
!!!AGN: Walzer
!!!EED: Wolfgang Drescher
!!!END: 2025/05/08
!!!ENC: Wolfgang Drescher
!!!EEV: 2025/05/08
!!!title: @{OPR}, @{SCT} №@{ONM}